packages/assets/files/common/colors/icons/ticketing/VippsLogo.svg

<svg fill="none" height="16" viewBox="0 0 64 16" width="64" xmlns="http://www.w3.org/2000/svg"><path clip-rule="evenodd" d="m64 3.83839c-.7202-2.74771-2.4686-3.83839-4.8553-3.83839-1.9336 0-4.3605 1.09068-4.3605 3.71715 0 1.69686 1.1723 3.03045 3.0852 3.37402l1.8103.32301c1.2344.22211 1.5842.68692 1.5842 1.31323 0 .70706-.7612 1.11103-1.8926 1.11103-1.4809 0-2.4067-.5252-2.5508-2.00016l-2.6124.40419c.4112 2.84833 2.9619 4.02043 5.2658 4.02043 2.1808 0 4.5053-1.2528 4.5053-3.77796 0-1.71743-1.0494-2.96961-3.0036-3.33375l-1.9951-.36327c-1.1111-.20199-1.4812-.74754-1.4812-1.27275 0-.6668.7198-1.09068 1.7073-1.09068 1.255 0 2.1395.42388 2.1806 1.81787zm-58.075 4.32289 2.7149-7.858411h3.1884l-4.73144 11.656531h-2.3654l-4.73146-11.656312h3.18843zm16.6834-4.52488c0 .92918-.7406 1.57562-1.6047 1.57562-.864 0-1.6043-.64644-1.6043-1.57562 0-.92939.7403-1.57562 1.6043-1.57562.8641 0 1.6049.64623 1.6049 1.57562zm.4936 4.12135c-1.0699 1.37336-2.2013 2.32285-4.1967 2.32295-2.036 0-3.6204-1.21214-4.8546-2.98975-.4939-.72741-1.255-.88891-1.8105-.50507-.5142.36371-.6374 1.13138-.1645 1.79818 1.7073 2.56564 4.0729 4.06024 6.8294 4.06024 2.5305 0 4.5055-1.2119 6.0481-3.23217.5759-.74732.5553-1.515 0-1.93932-.5144-.40441-1.2755-.26239-1.8512.48494zm7.098-1.65681c0 2.384 1.3989 3.63662 2.9625 3.63662 1.4809 0 3.0034-1.17187 3.0034-3.63662 0-2.42449-1.5225-3.59592-2.9831-3.59592-1.5839 0-2.9828 1.11103-2.9828 3.59592zm0-4.18153v-1.596408h-2.9004v15.676998h2.9004v-5.576c.9669 1.2932 2.2217 1.8389 3.6409 1.8389 2.6541 0 5.2459-2.0608 5.2459-6.30311 0-4.06095-2.6948-5.95957116-4.9989-5.95957116-1.8309 0-3.0855.82807716-3.8879 1.91919116zm13.9275 4.18153c0 2.384 1.3987 3.63662 2.9623 3.63662 1.4809 0 3.0032-1.17187 3.0032-3.63662 0-2.42449-1.5223-3.59592-2.9828-3.59592-1.584 0-2.9829 1.11103-2.9829 3.59592zm0-4.18153v-1.596408h-.0002-2.9004v15.676998h2.9004v-5.576c.967 1.2932 2.2217 1.8389 3.641 1.8389 2.6539 0 5.2459-2.0608 5.2459-6.30311 0-4.06095-2.6948-5.95957116-4.999-5.95957116-1.8309 0-3.0854.82807716-3.8877 1.91919116z" fill="white" fill-rule="evenodd"/></svg>

<svg width="64" height="16" viewBox="0 0 64 16" fill="none" xmlns="http://www.w3.org/2000/svg">
<g clip-path="url(#clip0_7176_3306)">
<path fill-rule="evenodd" clip-rule="evenodd" d="M64 3.83839C63.2798 1.09068 61.5314 0 59.1447 0C57.2111 0 54.7842 1.09068 54.7842 3.71715C54.7842 5.41401 55.9565 6.7476 57.8694 7.09117L59.6797 7.41418C60.9141 7.63629 61.2639 8.1011 61.2639 8.72741C61.2639 9.43447 60.5027 9.83844 59.3713 9.83844C57.8904 9.83844 56.9646 9.31324 56.8205 7.83828L54.2081 8.24247C54.6193 11.0908 57.17 12.2629 59.4739 12.2629C61.6547 12.2629 63.9792 11.0101 63.9792 8.48494C63.9792 6.76751 62.9298 5.51533 60.9756 5.15119L58.9805 4.78792C57.8694 4.58593 57.4993 4.04038 57.4993 3.51517C57.4993 2.84837 58.2191 2.42449 59.2066 2.42449C60.4616 2.42449 61.3461 2.84837 61.3872 4.24236L64 3.83839ZM5.925 8.16128L8.6399 0.302869H11.8283L7.09686 11.9594H4.73146L0 0.303088H3.18843L5.925 8.16128ZM22.6084 3.6364C22.6084 4.56558 21.8678 5.21202 21.0037 5.21202C20.1397 5.21202 19.3994 4.56558 19.3994 3.6364C19.3994 2.70701 20.1397 2.06078 21.0037 2.06078C21.8678 2.06078 22.6084 2.70701 22.6084 3.6364ZM23.102 7.75775C22.0321 9.13111 20.9007 10.0806 18.9053 10.0807C16.8693 10.0807 15.2849 8.86856 14.0507 7.09095C13.5568 6.36354 12.7957 6.20204 12.2402 6.58588C11.726 6.94959 11.6028 7.71726 12.0757 8.38406C13.783 10.9497 16.1486 12.4443 18.9051 12.4443C21.4356 12.4443 23.4106 11.2324 24.9532 9.21213C25.5291 8.46481 25.5085 7.69713 24.9532 7.27281C24.4388 6.8684 23.6777 7.01042 23.102 7.75775ZM30.2 6.10094C30.2 8.48494 31.5989 9.73756 33.1625 9.73756C34.6434 9.73756 36.1659 8.56569 36.1659 6.10094C36.1659 3.67645 34.6434 2.50502 33.1828 2.50502C31.5989 2.50502 30.2 3.61605 30.2 6.10094ZM30.2 1.91941V0.323002H27.2996V16H30.2V10.424C31.1669 11.7172 32.4217 12.2629 33.8409 12.2629C36.495 12.2629 39.0868 10.2021 39.0868 5.95979C39.0868 1.89884 36.392 0.00021884 34.0879 0.00021884C32.257 0.00021884 31.0024 0.828296 30.2 1.91941ZM44.1275 6.10094C44.1275 8.48494 45.5262 9.73756 47.0898 9.73756C48.5707 9.73756 50.093 8.56569 50.093 6.10094C50.093 3.67645 48.5707 2.50502 47.1102 2.50502C45.5262 2.50502 44.1275 3.61605 44.1275 6.10094ZM44.1275 1.91941V0.323002H41.2269V16H44.1273V10.424C45.0943 11.7172 46.349 12.2629 47.7683 12.2629C50.4222 12.2629 53.0142 10.2021 53.0142 5.95979C53.0142 1.89884 50.3194 0.00021884 48.0152 0.00021884C46.1843 0.00021884 44.9298 0.828296 44.1275 1.91941Z" fill="white"/>
</g>
<defs>
<clipPath id="clip0_7176_3306">
<rect width="64" height="16" fill="white"/>
</clipPath>
</defs>
</svg>
